img/aqua.svg

<?xml version="1.0" encoding="UTF-8"?>
<svg width="600px" height="355px" viewBox="0 0 600 355" version="1.1" xmlns="http://www.w3.org/2000/svg" xmlns:xlink="http://www.w3.org/1999/xlink">
    <!-- Generator: Sketch 52.3 (67297) - http://www.bohemiancoding.com/sketch -->
    <title>aqua</title>
    <desc>Created with Sketch.</desc>
    <defs>
        <path d="M64.663067,0.365321375 C64.3542117,0.73064275 63.0345572,2.86636771 53.6285097,17.9850523 C50.0345572,23.773991 46.6933045,29.1414051 46.187905,29.9282511 C45.6825054,30.6869955 43.8012959,33.7219731 41.9762419,36.6726457 C40.1511879,39.5952167 34.0863931,49.3464873 28.4989201,58.3109118 C18.4470842,74.4693572 11.5399568,85.5695067 10.5010799,87.3118087 C10.2203024,87.8176383 9.23758099,89.3913303 8.36717063,90.8526158 C7.0475162,93.0445441 5.39092873,96.3043348 5.36285097,96.8101644 C5.33477322,96.8944694 5.05399568,97.5408072 4.68898488,98.2995516 C3.00431965,101.615546 0.982721382,109.708819 0.280777538,115.806876 C-0.252699784,120.246936 0.0561555076,129.604783 0.842332613,134.044843 C3.14470842,147.027803 9.01295896,158.549477 18.2224622,168.132138 C23.6133909,173.724365 29.0885529,177.686697 36.3606911,181.255605 C45.7667387,185.892377 54.2742981,187.859492 65,187.859492 C75.7257019,187.859492 84.2332613,185.892377 93.6393089,181.255605 C100.911447,177.686697 106.386609,173.724365 111.777538,168.132138 C120.987041,158.549477 126.855292,147.027803 129.157667,134.044843 C129.943844,129.604783 130.2527,120.246936 129.719222,115.806876 C129.017279,109.708819 126.99568,101.615546 125.311015,98.2995516 C124.946004,97.5408072 124.665227,96.8944694 124.665227,96.8101644 C124.665227,96.3605381 123.064795,93.2412556 121.660907,90.9088191 C120.762419,89.4475336 119.779698,87.8176383 119.49892,87.3118087 C118.460043,85.5695067 111.552916,74.4693572 101.50108,58.3109118 C95.9136069,49.3464873 89.8488121,39.5952167 88.0237581,36.6726457 C86.1987041,33.7219731 84.3174946,30.6869955 83.812095,29.9282511 C83.3066955,29.1414051 79.9654428,23.773991 76.3714903,17.9850523 C66.4319654,1.9671151 65.336933,0.281016442 65.1403888,0.140508221 C65.0280778,0.0562032885 64.8034557,0.168609865 64.663067,0.365321375 Z" id="path-1"></path>
        <linearGradient x1="100%" y1="100%" x2="0%" y2="100%" id="linearGradient-3">
            <stop stop-color="#0056E6" offset="0%"></stop>
            <stop stop-color="#166DFF" offset="100%"></stop>
        </linearGradient>
    </defs>
    <g id="aqua" stroke="none" stroke-width="1" fill="none" fill-rule="evenodd">
        <rect class="aqua-background" fill="#FFFFFF" x="0" y="0" width="600" height="355"></rect>
        <g id="Path-+-Path-+-Path-Mask" transform="translate(93.000000, 51.000000)">
            <mask id="mask-2" fill="white">
                <use xlink:href="#path-1"></use>
            </mask>
            <use id="Mask" fill="#0043B3" fill-rule="nonzero" xlink:href="#path-1"></use>
            <path d="M64.4324351,-19.3140724 C64.1413339,-18.9706958 62.8975379,-16.9632638 54.0321834,-2.75275771 C50.6448241,2.68843976 47.4956385,7.73343354 47.0192911,8.47301378 C46.5429436,9.18618044 44.7698728,12.0388471 43.0497294,14.812273 C41.3295859,17.5592853 35.6134171,26.7247976 30.3471319,35.1507296 C20.8731113,50.3385381 14.3630301,60.7719022 13.3838715,62.4095441 C13.1192341,62.8849886 12.193003,64.364149 11.372627,65.7376552 C10.1288309,67.7979144 8.56747001,70.8618897 8.54100627,71.3373342 C8.51454252,71.4165749 8.24990508,72.0240872 7.9058764,72.7372539 C6.31805171,75.8540563 4.4126621,83.4611674 3.75106848,89.1929142 C3.24825733,93.3662599 3.53935852,102.161982 4.28034337,106.335328 C6.45037044,118.538402 11.9812931,129.367969 20.6614013,138.375 C25.7424403,143.631303 30.9028705,147.355617 37.7569804,150.710142 C46.6223349,155.068383 54.6408495,156.917333 64.75,156.917333 C74.8591505,156.917333 82.8776651,155.068383 91.7430196,150.710142 C98.5971295,147.355617 103.75756,143.631303 108.838599,138.375 C117.518707,129.367969 123.04963,118.538402 125.219657,106.335328 C125.960641,102.161982 126.251743,93.3662599 125.748932,89.1929142 C125.087338,83.4611674 123.181948,75.8540563 121.594124,72.7372539 C121.250095,72.0240872 120.985457,71.4165749 120.985457,71.3373342 C120.985457,70.9147169 119.477024,67.9828095 118.153837,65.7904824 C117.306997,64.4169762 116.380766,62.8849886 116.116128,62.4095441 C115.13697,60.7719022 108.626889,50.3385381 99.1528681,35.1507296 C93.8865829,26.7247976 88.1704141,17.5592853 86.4502706,14.812273 C84.7301272,12.0388471 82.9570564,9.18618044 82.4807089,8.47301378 C82.0043615,7.73343354 78.8551759,2.68843976 75.4678166,-2.75275771 C66.099651,-17.8084983 65.0675649,-19.3933131 64.8823187,-19.525381 C64.7764637,-19.6046217 64.5647538,-19.4989674 64.4324351,-19.3140724 Z" id="Path" fill="#0056E6" fill-rule="nonzero" mask="url(#mask-2)"></path>
            <path d="M64.7511328,-16.358119 C64.5230045,-16.0898561 63.5482746,-14.5215498 56.6007315,-3.41959196 C53.9461478,0.831343565 51.4782146,4.77274495 51.1049138,5.35054202 C50.731613,5.90770347 49.3421044,8.13634928 47.9940736,10.3030883 C46.6460429,12.4491916 42.166433,19.6097481 38.039385,26.1925075 C30.6148464,38.0579829 25.5130685,46.2090486 24.7457279,47.4884563 C24.5383386,47.8598973 23.8124758,49.0154914 23.1695689,50.0885431 C22.1948389,51.6981207 20.9712418,54.0918513 20.9505029,54.4632923 C20.9297639,54.5251991 20.7223746,54.9998182 20.4527684,55.5569796 C19.2084324,57.9919815 17.7152291,63.935037 17.1967557,68.4129642 C16.8027159,71.6733905 17.0308442,78.5450484 17.6115344,81.8054747 C19.312127,91.3391263 23.6465644,99.7997261 30.4489349,106.836469 C34.4308104,110.942955 38.4749026,113.852576 43.8462867,116.473298 C50.7938298,119.878174 57.077727,121.322667 65,121.322667 C72.922273,121.322667 79.2061702,119.878174 86.1537133,116.473298 C91.5250974,113.852576 95.5691896,110.942955 99.5510651,106.836469 C106.353436,99.7997261 110.687873,91.3391263 112.388466,81.8054747 C112.969156,78.5450484 113.197284,71.6733905 112.803244,68.4129642 C112.284771,63.935037 110.791568,57.9919815 109.547232,55.5569796 C109.277625,54.9998182 109.070236,54.5251991 109.070236,54.4632923 C109.070236,54.1331226 107.888117,51.8425699 106.85117,50.1298143 C106.187524,49.0567627 105.461661,47.8598973 105.254272,47.4884563 C104.486932,46.2090486 99.3851536,38.0579829 91.960615,26.1925075 C87.833567,19.6097481 83.3539571,12.4491916 82.0059264,10.3030883 C80.6578956,8.13634928 79.268387,5.90770347 78.8950862,5.35054202 C78.5217854,4.77274495 76.0538522,0.831343565 73.3992685,-3.41959196 C66.0576857,-15.1818893 65.2488672,-16.4200259 65.1036947,-16.5232039 C65.0207389,-16.5851107 64.8548275,-16.5025683 64.7511328,-16.358119 Z" id="Path" fill="#166DFF" fill-rule="nonzero" mask="url(#mask-2)"></path>
            <path d="M64.5516839,-26.421286 C64.3698942,-26.2057001 63.5931563,-24.9453521 58.0568329,-16.0234151 C55.9414616,-12.6072087 53.9748273,-9.43975527 53.6773532,-8.97541654 C53.3798791,-8.52766133 52.2726144,-6.73664052 51.1984024,-4.99537028 C50.1241904,-3.27068357 46.5545013,2.48379998 43.2657599,7.7739448 C37.3493307,17.3094723 33.2838515,23.8599651 32.6723769,24.8881437 C32.5071135,25.1866472 31.9286917,26.1153246 31.4163752,26.977668 C30.6396373,28.271183 29.6645833,30.1948721 29.648057,30.4933755 C29.6315306,30.5431261 29.4662673,30.9245472 29.2514249,31.3723024 C28.2598445,33.3291585 27.0699482,38.105214 26.6567897,41.7038391 C26.3427893,44.3240363 26.524579,49.8463504 26.9873165,52.4665476 C28.3424762,60.1281366 31.796481,66.9273823 37.21712,72.5823647 C40.390177,75.8824864 43.612813,78.2207636 47.8931347,80.3268714 C53.4294581,83.0631532 58.4369387,84.224 64.75,84.224 C71.0630613,84.224 76.0705419,83.0631532 81.6068653,80.3268714 C85.887187,78.2207636 89.109823,75.8824864 92.28288,72.5823647 C97.703519,66.9273823 101.157524,60.1281366 102.512684,52.4665476 C102.975421,49.8463504 103.157211,44.3240363 102.84321,41.7038391 C102.430052,38.105214 101.240155,33.3291585 100.248575,31.3723024 C100.033733,30.9245472 99.8684694,30.5431261 99.8684694,30.4933755 C99.8684694,30.2280391 98.9264681,28.3872677 98.1001511,27.010835 C97.5713083,26.1484917 96.9928865,25.1866472 96.8276231,24.8881437 C96.2161485,23.8599651 92.1506693,17.3094723 86.2342401,7.7739448 C82.9454987,2.48379998 79.3758096,-3.27068357 78.3015976,-4.99537028 C77.2273856,-6.73664052 76.1201209,-8.52766133 75.8226468,-8.97541654 C75.5251727,-9.43975527 73.5585384,-12.6072087 71.4431671,-16.0234151 C65.5928433,-25.476025 64.9483161,-26.4710365 64.8326317,-26.5539542 C64.7665263,-26.6037048 64.6343156,-26.5373706 64.5516839,-26.421286 Z" id="Path" fill="#007FFF" fill-rule="nonzero" mask="url(#mask-2)"></path>
        </g>
        <path d="M340.3,185.4 C340.700002,186.266671 340.9,187.133329 340.9,188 C340.9,189.533341 340.28334,190.833328 339.05,191.9 C337.816661,192.966672 336.400008,193.5 334.8,193.5 C333.733328,193.5 332.733338,193.21667 331.8,192.65 C330.866662,192.08333 330.133336,191.200006 329.6,190 L323.6,176.6 L288.4,176.6 L282.4,190 C281.866664,191.200006 281.133338,192.08333 280.2,192.65 C279.266662,193.21667 278.233339,193.5 277.1,193.5 C275.566659,193.5 274.166673,192.966672 272.9,191.9 C271.633327,190.833328 271,189.533341 271,188 C271,187.133329 271.199998,186.266671 271.6,185.4 L299.2,126.1 C299.800003,124.76666 300.71666,123.750004 301.95,123.05 C303.183339,122.349997 304.499993,122 305.9,122 C307.300007,122 308.616661,122.349997 309.85,123.05 C311.08334,123.750004 311.999997,124.76666 312.6,126.1 L340.3,185.4 Z M292.8,166.6 L319.2,166.6 L306,136.9 L292.8,166.6 Z M390.5,143.2 C392.366676,143.2 393.866661,143.733328 395,144.8 C396.133339,145.866672 396.7,147.299991 396.7,149.1 L396.7,205.8 C396.7,207.533342 396.100006,208.933328 394.9,210 C393.699994,211.066672 392.166676,211.6 390.3,211.6 C388.433324,211.6 386.950006,211.083339 385.85,210.05 C384.749995,209.016661 384.2,207.666675 384.2,206 L384.2,185.4 C382.733326,188.06668 380.616681,190.149992 377.85,191.65 C375.08332,193.150008 371.966684,193.9 368.5,193.9 C364.233312,193.9 360.466683,192.866677 357.2,190.8 C353.933317,188.733323 351.383343,185.800019 349.55,182 C347.716657,178.199981 346.8,173.766692 346.8,168.7 C346.8,163.633308 347.716657,159.150019 349.55,155.25 C351.383343,151.349981 353.949984,148.333344 357.25,146.2 C360.550017,144.066656 364.299979,143 368.5,143 C372.033351,143 375.183319,143.749993 377.95,145.25 C380.71668,146.750008 382.833326,148.866653 384.3,151.6 L384.3,149.1 C384.3,147.299991 384.866661,145.866672 386,144.8 C387.133339,143.733328 388.633324,143.2 390.5,143.2 Z M371.9,184.2 C375.833353,184.2 378.883323,182.833347 381.05,180.1 C383.216678,177.366653 384.3,173.500025 384.3,168.5 C384.3,163.433308 383.216678,159.533347 381.05,156.8 C378.883323,154.066653 375.80002,152.7 371.8,152.7 C367.866647,152.7 364.800011,154.099986 362.6,156.9 C360.399989,159.700014 359.3,163.633308 359.3,168.7 C359.3,173.633358 360.399989,177.449987 362.6,180.15 C364.800011,182.850013 367.89998,184.2 371.9,184.2 Z M448.2,143.2 C450.133343,143.2 451.666661,143.733328 452.8,144.8 C453.933339,145.866672 454.5,147.299991 454.5,149.1 L454.5,187.9 C454.5,189.633342 453.916673,191.033328 452.75,192.1 C451.583328,193.166672 450.066676,193.7 448.2,193.7 C446.399991,193.7 444.966672,193.200005 443.9,192.2 C442.833328,191.199995 442.3,189.833342 442.3,188.1 L442.3,185.6 C440.766659,188.26668 438.700013,190.31666 436.1,191.75 C433.499987,193.18334 430.566683,193.9 427.3,193.9 C415.29994,193.9 409.3,187.166734 409.3,173.7 L409.3,149.1 C409.3,147.299991 409.866661,145.866672 411,144.8 C412.133339,143.733328 413.633324,143.2 415.5,143.2 C417.433343,143.2 418.966661,143.733328 420.1,144.8 C421.233339,145.866672 421.8,147.299991 421.8,149.1 L421.8,173.8 C421.8,177.266684 422.499993,179.833325 423.9,181.5 C425.300007,183.166675 427.499985,184 430.5,184 C433.966684,184 436.74999,182.850011 438.85,180.55 C440.950011,178.249989 442,175.200019 442,171.4 L442,149.1 C442,147.299991 442.566661,145.866672 443.7,144.8 C444.833339,143.733328 446.333324,143.2 448.2,143.2 Z M488.7,143 C495.500034,143 500.549983,144.683316 503.85,148.05 C507.150017,151.416684 508.8,156.533299 508.8,163.4 L508.8,187.8 C508.8,189.600009 508.266672,191.016661 507.2,192.05 C506.133328,193.083339 504.666676,193.6 502.8,193.6 C501.066658,193.6 499.650006,193.066672 498.55,192 C497.449995,190.933328 496.9,189.533342 496.9,187.8 L496.9,185.6 C495.766661,188.200013 493.983346,190.233326 491.55,191.7 C489.116655,193.166674 486.300016,193.9 483.1,193.9 C479.833317,193.9 476.86668,193.23334 474.2,191.9 C471.53332,190.56666 469.433341,188.733345 467.9,186.4 C466.366659,184.066655 465.6,181.466681 465.6,178.6 C465.6,174.999982 466.516658,172.166677 468.35,170.1 C470.183343,168.033323 473.166646,166.533338 477.3,165.6 C481.433354,164.666662 487.133297,164.2 494.4,164.2 L496.9,164.2 L496.9,161.9 C496.9,158.633317 496.200007,156.250008 494.8,154.75 C493.399993,153.249993 491.133349,152.5 488,152.5 C486.066657,152.5 484.10001,152.783331 482.1,153.35 C480.09999,153.91667 477.733347,154.733328 475,155.8 C473.266658,156.666671 472.000004,157.1 471.2,157.1 C469.999994,157.1 469.016671,156.666671 468.25,155.8 C467.48333,154.933329 467.1,153.800007 467.1,152.4 C467.1,151.266661 467.38333,150.283338 467.95,149.45 C468.51667,148.616663 469.46666,147.833337 470.8,147.1 C473.133345,145.833327 475.916651,144.833337 479.15,144.1 C482.38335,143.366663 485.566651,143 488.7,143 Z M485.6,184.9 C488.93335,184.9 491.64999,183.783344 493.75,181.55 C495.85001,179.316656 496.9,176.433351 496.9,172.9 L496.9,170.8 L495.1,170.8 C490.633311,170.8 487.166679,170.999998 484.7,171.4 C482.233321,171.800002 480.466672,172.499995 479.4,173.5 C478.333328,174.500005 477.8,175.866658 477.8,177.6 C477.8,179.733344 478.549993,181.483327 480.05,182.85 C481.550008,184.216674 483.399989,184.9 485.6,184.9 Z" id="Aqua" fill="#000000"></path>
        <path d="M0,325.944137 C55.6806995,289.997027 128.79142,273.073618 219.332162,275.173911 C355.143274,278.324349 417.618855,333.874652 492.442882,337.367438 C542.325567,339.695963 578.177939,324.88798 600,292.94349 L600,355.137018 L0,355.137018 L0,325.944137 Z" id="Path-8" fill="url(#linearGradient-3)"></path>
    </g>
</svg>

<svg xmlns="http://www.w3.org/2000/svg" xmlns:xlink="http://www.w3.org/1999/xlink" viewBox="0 0 600 355">
  <defs>
    <path id="a" d="M64.7.4A2527.3 2527.3 0 0 1 42 36.7c-1.8 2.9-8 12.6-13.5 21.6l-18 29c-.3.5-1.3 2-2.1 3.6a35.7 35.7 0 0 0-3.7 7.4A66.2 66.2 0 0 0 .8 134 64.8 64.8 0 0 0 65 188c10.7 0 19.2-2 28.6-6.6a64.8 64.8 0 0 0 25.9-94l-18-29L88 36.7l-4.2-6.8A2527.3 2527.3 0 0 1 65.1.1s-.3 0-.4.3z"/>
    <linearGradient id="c" x1="100%" x2="0%" y1="100%" y2="100%">
      <stop offset="0%" stop-color="#0056E6"/>
      <stop offset="100%" stop-color="#166DFF"/>
    </linearGradient>
  </defs>
  <g fill="none" fill-rule="evenodd">
    <path fill="#FFF" d="M0 0h600v355H0z" class="aqua-background"/>
    <g transform="translate(93 51)">
      <mask id="b" fill="#fff">
        <use xlink:href="#a"/>
      </mask>
      <use fill="#0043B3" fill-rule="nonzero" xlink:href="#a"/>
      <path fill="#0056E6" fill-rule="nonzero" d="M64.4-19.3L54-2.8a2374.5 2374.5 0 0 1-11 17.6L30.3 35.2l-17 27.2-2 3.3a33.5 33.5 0 0 0-3.4 7 62 62 0 0 0-3.6 33.6A60.9 60.9 0 0 0 64.8 157c10 0 18-1.8 27-6.2a60.9 60.9 0 0 0 24.4-88.3l-17-27.2-12.7-20.4-4-6.3a2374.5 2374.5 0 0 1-17.6-28c-.1-.1-.3 0-.5.2z" mask="url(#b)"/>
      <path fill="#166DFF" fill-rule="nonzero" d="M64.8-16.4l-8.2 13A1854.2 1854.2 0 0 1 48 10.3L38 26.2 24.7 47.5 23.2 50a26.1 26.1 0 0 0-2.7 5.5 48.4 48.4 0 0 0-2.9 26.2A47.5 47.5 0 0 0 65 121.3a45 45 0 0 0 21.2-4.8 47.5 47.5 0 0 0 19.1-69c-.8-1.3-6-9.4-13.3-21.3L82 10.3l-3.1-5a1854.2 1854.2 0 0 1-13.8-21.8l-.3.1z" mask="url(#b)"/>
      <path fill="#007FFF" fill-rule="nonzero" d="M64.6-26.4L58-16a1492 1492 0 0 1-6.9 11l-8 12.8c-5.9 9.5-10 16-10.5 17L31.4 27a21 21 0 0 0-2.1 4.4 39.1 39.1 0 0 0-2.3 21A38.3 38.3 0 1 0 96.8 25L86.2 7.8 78.3-5a281.2 281.2 0 0 0-6.9-11 232 232 0 0 0-6.6-10.6s-.2 0-.2.2z" mask="url(#b)"/>
    </g>
    <path fill="#000" d="M340.3 185.4c.4.9.6 1.7.6 2.6a5 5 0 0 1-1.8 3.9 6.3 6.3 0 0 1-4.3 1.6c-1 0-2-.3-3-.8-1-.6-1.7-1.5-2.2-2.7l-6-13.4h-35.2l-6 13.4c-.5 1.2-1.3 2-2.2 2.7a6.4 6.4 0 0 1-7.3-.8 5 5 0 0 1-1.9-3.9c0-.9.2-1.7.6-2.6l27.6-59.3a6.5 6.5 0 0 1 2.8-3 7.9 7.9 0 0 1 7.9 0c1.2.7 2.1 1.7 2.7 3l27.7 59.3zm-47.5-18.8h26.4L306 136.9l-13.2 29.7zm97.7-23.4c1.9 0 3.4.5 4.5 1.6 1.1 1 1.7 2.5 1.7 4.3v56.7c0 1.7-.6 3.1-1.8 4.2a6.7 6.7 0 0 1-4.6 1.6c-1.9 0-3.3-.5-4.4-1.5a5.3 5.3 0 0 1-1.7-4.1v-20.6a15.5 15.5 0 0 1-6.3 6.3 19.3 19.3 0 0 1-9.4 2.2c-4.3 0-8-1-11.3-3.1-3.3-2-5.8-5-7.6-8.8a30.3 30.3 0 0 1-2.8-13.3c0-5 1-9.5 2.8-13.4a20.3 20.3 0 0 1 19-12.3c3.4 0 6.6.7 9.4 2.3 2.7 1.5 4.8 3.6 6.3 6.3v-2.5c0-1.8.6-3.2 1.7-4.3 1.1-1 2.6-1.6 4.5-1.6zm-18.6 41c4 0 7-1.4 9.2-4.1 2.1-2.7 3.2-6.6 3.2-11.6s-1-9-3.3-11.7a11.1 11.1 0 0 0-9.2-4.1c-4 0-7 1.4-9.2 4.2a18.7 18.7 0 0 0-3.3 11.8c0 5 1.1 8.7 3.3 11.5 2.2 2.7 5.3 4 9.3 4zm76.3-41c2 0 3.5.5 4.6 1.6 1.1 1 1.7 2.5 1.7 4.3v38.8c0 1.7-.6 3.1-1.8 4.2a6.5 6.5 0 0 1-4.5 1.6 6 6 0 0 1-4.3-1.5c-1-1-1.6-2.4-1.6-4.1v-2.5a16 16 0 0 1-6.2 6.2 18 18 0 0 1-8.8 2.1c-12 0-18-6.7-18-20.2v-24.6c0-1.8.6-3.2 1.7-4.3 1.1-1 2.6-1.6 4.5-1.6 2 0 3.5.5 4.6 1.6 1.1 1 1.7 2.5 1.7 4.3v24.7c0 3.5.7 6 2.1 7.7 1.4 1.7 3.6 2.5 6.6 2.5 3.5 0 6.2-1.1 8.4-3.4a13 13 0 0 0 3.1-9.2v-22.3c0-1.8.6-3.2 1.7-4.3 1.1-1 2.6-1.6 4.5-1.6zm40.5-.2c6.8 0 11.8 1.7 15.2 5 3.3 3.4 4.9 8.5 4.9 15.4v24.4c0 1.8-.5 3.2-1.6 4.3a6 6 0 0 1-4.4 1.5c-1.7 0-3.1-.5-4.3-1.6a5.6 5.6 0 0 1-1.6-4.2v-2.2a13 13 0 0 1-5.3 6.1 16 16 0 0 1-8.5 2.2c-3.3 0-6.2-.7-8.9-2a15.8 15.8 0 0 1-6.3-5.5c-1.5-2.3-2.3-5-2.3-7.8 0-3.6 1-6.4 2.8-8.5 1.8-2 4.8-3.6 8.9-4.5 4.1-1 9.8-1.4 17.1-1.4h2.5v-2.3c0-3.3-.7-5.6-2.1-7.2-1.4-1.5-3.7-2.2-6.8-2.2-2 0-3.9.3-5.9.8a80 80 0 0 0-7.1 2.5 10 10 0 0 1-3.8 1.3c-1.2 0-2.2-.4-3-1.3a5 5 0 0 1-1.1-3.4c0-1.1.3-2.1.8-3a8 8 0 0 1 2.9-2.3 43 43 0 0 1 17.9-4.1zm-3.1 41.9c3.3 0 6-1.1 8.1-3.3 2.2-2.3 3.2-5.2 3.2-8.7v-2.1h-1.8c-4.5 0-8 .2-10.4.6-2.5.4-4.2 1.1-5.3 2.1-1 1-1.6 2.4-1.6 4.1 0 2.1.7 3.9 2.3 5.3a8 8 0 0 0 5.5 2z"/>
    <path fill="url(#c)" d="M0 326c55.7-36 128.8-53 219.3-50.8 135.8 3.1 198.3 58.7 273.1 62.2 50 2.3 85.8-12.5 107.6-44.5v62.2H0V326z"/>
  </g>
</svg>
